packages/kaspersky-hexa-ui-icons/src/iconsSVGs/48/Desktop.svg

<svg xmlns="http://www.w3.org/2000/svg" width="48" height="48" fill="none" viewBox="0 0 48 48"><path fill="currentColor" fill-rule="evenodd" d="M0 3v42h48V3zm46 2v32H2V5zM2 43v-4h44v4zm42-28H20v21h24zm-2 2v2H22v-2zM22 34V21h20v13zM10 7H4v6h6zm-2 4H6V9h2zm10-4h-6v6h6zm-2 4h-2V9h2zm10-4h-6v6h6zm-2 4h-2V9h2zm-14 4H4v6h6zm-2 4H6v-2h2zm2 4H4v6h6zm-2 4H6v-2h2zm10-12h-6v6h6zm-2 4h-2v-2h2zM3 40h4v2H3zm40 0h2v2h-2zm-3 0h2v2h-2zm-3 0h2v2h-2z" clip-rule="evenodd"/></svg>

<svg width="48" height="48" viewBox="0 0 48 48" fill="none" xmlns="http://www.w3.org/2000/svg">
<path fill-rule="evenodd" clip-rule="evenodd" d="M0 3V45H48V3H0ZM46 5V37H2V5H46ZM2 43V39H46V43H2ZM44 15H20V36H44V15ZM42 17V19H22V17H42ZM22 34V21H42V34H22ZM10 7H4V13H10V7ZM8 11H6V9H8V11ZM18 7H12V13H18V7ZM16 11H14V9H16V11ZM26 7H20V13H26V7ZM24 11H22V9H24V11ZM10 15H4V21H10V15ZM8 19H6V17H8V19ZM10 23H4V29H10V23ZM8 27H6V25H8V27ZM18 15H12V21H18V15ZM16 19H14V17H16V19ZM3 40H7V42H3V40ZM43 40H45V42H43V40ZM40 40H42V42H40V40ZM37 40H39V42H37V40Z"  fill="currentColor"/>
</svg>
